packages/components/src/telekom/icons/home/unable-to-connect-to-router/selected.svg

<?xml version="1.0" encoding="UTF-8"?>
<svg width="24px" height="24px" viewBox="0 0 24 24" version="1.1" xmlns="http://www.w3.org/2000/svg" xmlns:xlink="http://www.w3.org/1999/xlink">
    <title>/svg/icon/home/unable-to-connect-to-router/selected</title>
    <g id="icon/home/unable-to-connect-to-router/selected" stroke="none" stroke-width="1" fill="none" fill-rule="evenodd">
        <path d="M17.7425,11.4999 C21.1945,11.4999 23.9925,14.2989 23.9925,17.7499 C23.9925,21.2009 21.1945,23.9999 17.7425,23.9999 C14.2915,23.9999 11.4925,21.2009 11.4925,17.7499 C11.4925,14.2989 14.2915,11.4999 17.7425,11.4999 Z M17.7425,12.9999 C15.1235,12.9999 12.9925,15.1309 12.9925,17.7499 C12.9925,20.3689 15.1235,22.4999 17.7425,22.4999 C20.3625,22.4999 22.4925,20.3689 22.4925,17.7499 C22.4925,15.1309 20.3625,12.9999 17.7425,12.9999 Z M6.8005,5.9999 L11.9995,10.4799 L17.1995,5.9999 L19.4995,5.9999 C21.0982857,5.9999 22.4032398,7.24868444 22.4944115,8.82361269 L22.4995,8.9999 L22.4995,11.6459 C21.1855,10.6179 19.5365,9.9999 17.7425,9.9999 C13.4695,9.9999 9.9925,13.4769 9.9925,17.7499 C9.9925,19.2068286 10.3994796,20.5689102 11.1021476,21.7344616 L11.2695,21.9999 L4.4995,21.9999 C2.90264286,21.9999 1.59589796,20.7511156 1.50459585,19.1761873 L1.4995,18.9999 L1.4995,8.9999 C1.4995,7.40207857 2.74921429,6.09622908 4.32331232,6.00499216 L4.4995,5.9999 L6.8005,5.9999 Z M15.2125,15.2199 C15.4788636,14.9535364 15.8956405,14.9293215 16.189352,15.1472554 L16.2735,15.2199 L17.7425,16.6889 L19.2125,15.2199 C19.5055,14.9269 19.9805,14.9269 20.2735,15.2199 C20.5398636,15.4862636 20.5640785,15.9030405 20.3461446,16.1960007 L20.2735,16.2799 L18.8035,17.7499 L20.2735,19.2199 C20.5665,19.5129 20.5665,19.9879 20.2735,20.2799 C20.1265,20.4269 19.9355,20.4999 19.7425,20.4999 C19.5889,20.4999 19.43594,20.45318 19.305636,20.359228 L19.2125,20.2799 L17.7425,18.8119 L16.2735,20.2799 C16.1265,20.4269 15.9355,20.4999 15.7425,20.4999 C15.5505,20.4999 15.3595,20.4269 15.2125,20.2799 C14.9461364,20.0144455 14.9219215,19.5977512 15.1398554,19.3040473 L15.2125,19.2199 L16.6815,17.7499 L15.2125,16.2799 C14.9195,15.9879 14.9195,15.5129 15.2125,15.2199 Z M11.9995,6.4999 C12.5525,6.4999 12.9995,6.9479 12.9995,7.4999 C12.9995,8.0529 12.5525,8.4999 11.9995,8.4999 C11.4485,8.4999 10.9995,8.0529 10.9995,7.4999 C10.9995,6.9479 11.4485,6.4999 11.9995,6.4999 Z M11.9995,3.4999 C13.4825,3.4999 14.7765,4.3119 15.4665,5.5129 L14.2985,6.5199 C13.9165,5.6269 13.0305,4.9999 11.9995,4.9999 C10.9695,4.9999 10.0835,5.6269 9.7015,6.5199 L8.5325,5.5129 C9.2245,4.3119 10.5185,3.4999 11.9995,3.4999 Z M11.9995,0.4999 C14.29294,0.4999 16.3292536,1.6095064 17.6067955,3.31822653 L17.7625,3.5349 L16.6165,4.5209 C15.6365,3.0069 13.9355,1.9999 11.9995,1.9999 C10.149587,1.9999 8.5128535,2.92123837 7.51462452,4.32633807 L7.3825,4.5209 L6.2385,3.5349 C7.5015,1.7039 9.6125,0.4999 11.9995,0.4999 Z" id="Icon" fill="#000000"></path>
    </g>
</svg>

<svg width="24" height="24" xmlns="http://www.w3.org/2000/svg"><path d="M17.742 11.5a6.25 6.25 0 110 12.5 6.25 6.25 0 010-12.5zm0 1.5a4.756 4.756 0 00-4.75 4.75 4.756 4.756 0 004.75 4.75c2.62 0 4.75-2.131 4.75-4.75 0-2.62-2.13-4.75-4.75-4.75zM6.8 6l5.2 4.48L17.2 6h2.3a3 3 0 012.994 2.824L22.5 9v2.646A7.694 7.694 0 0017.742 10c-4.273 0-7.75 3.477-7.75 7.75 0 1.457.407 2.819 1.11 3.984l.168.266H4.5a3 3 0 01-2.995-2.824L1.5 19V9a3 3 0 012.823-2.995L4.5 6h2.302zm8.413 9.22a.75.75 0 01.976-.073l.084.073 1.47 1.469 1.47-1.47a.75.75 0 011.133.977l-.073.084-1.47 1.47 1.47 1.47a.749.749 0 01-.967 1.14l-.094-.08-1.47-1.468-1.469 1.468a.746.746 0 01-1.06 0 .749.749 0 01-.073-.976l.072-.084 1.47-1.47-1.47-1.47a.749.749 0 010-1.06zM12 6.5a1 1 0 110 2 1 1 0 010-2zm0-3c1.482 0 2.777.812 3.466 2.013L14.3 6.52a2.502 2.502 0 00-2.3-1.52c-1.03 0-1.915.627-2.298 1.52L8.534 5.513A4.002 4.002 0 0111.998 3.5zm0-3a6.99 6.99 0 015.607 2.818l.155.217-1.146.986A5.496 5.496 0 0012 2c-1.85 0-3.486.921-4.484 2.326l-.132.195-1.144-.986A6.993 6.993 0 0111.998.5z" fill="#000" fill-rule="evenodd"/></svg>
